src/icons/sheep.svg

<svg class="icon" fill="none" viewBox="0 0 48 48" xmlns="http://www.w3.org/2000/svg">
    <rect width="48" height="48" fill="#fff"/>
    <rect x="4" y="4" width="40" height="40" rx="10" fill="url(#a)"/>
    <path d="m21.432 12.8c0.7942-0.5295 1.6727-0.8 2.5683-0.8 0.9702 0 1.862 0.2645 2.5901 0.8154 0.5696 0.4233 1.0337 0.9701 1.3349 1.6385 0.489-0.1893 0.9867-0.2957 1.4945-0.2957 0.2439 0 0.4879 0.0345 0.7037 0.0756l0.0065 0.0013c0.8749 0.1792 1.7695 0.6213 2.3917 1.2435 0.7215 0.7215 1.0761 1.5234 1.2446 2.3972l0.0047 0.0242 0.0021 0.0246c0.0666 0.758 0.0277 1.495-0.2398 2.1955 0.6129 0.3272 1.2192 0.7761 1.6537 1.3693 0.5454 0.7317 0.8133 1.6201 0.8133 2.5106 0 0.823-0.2825 1.6891-0.7015 2.4556l-0.0097 0.0178-0.0113 0.017c-0.4354 0.6576-1.0462 1.1368-1.7329 1.4381 0.2711 0.7135 0.3661 1.4452 0.2214 2.1957l-0.0011 0.0055c-0.1792 0.8749-0.6213 1.7695-1.2435 2.3917-0.7215 0.7215-1.5234 1.0761-2.3972 1.2446l-0.0214 0.0041-0.0217 0.0022c-0.2076 0.0207-0.4154 0.0311-0.6232 0.0311-0.5309 0-1.0519-0.0702-1.548-0.2559-0.2937 0.62-0.7424 1.2149-1.3245 1.6405l-0.0084 0.0062-0.0087 0.0058c-0.7942 0.5295-1.6727 0.8-2.5683 0.8-0.9667 0-1.8542-0.2772-2.5854-0.812l-0.0028-2e-3c-0.5704-0.4235-1.0353-0.9707-1.3368-1.6399-0.489 0.1893-0.9867 0.2957-1.4945 0.2957-0.2439 0-0.4879-0.0345-0.7037-0.0756l-0.0065-0.0013c-0.8749-0.1792-1.7695-0.6213-2.3917-1.2435-0.6913-0.6914-1.1615-1.4236-1.2514-2.446-0.0657-0.7467-0.0288-1.4731 0.2281-2.1642-0.621-0.2937-1.2171-0.7429-1.6433-1.3258l-0.0062-0.0084-0.0058-0.0087c-0.5295-0.7942-0.8-1.6727-0.8-2.5683 0-0.9667 0.2772-1.8542 0.812-2.5854l2e-3 -0.0028c0.424-0.5711 0.9721-1.0364 1.6423-1.3379-0.2718-0.7143-0.3671-1.4467-0.2223-2.1981l0.0011-0.0055c0.1792-0.8749 0.6213-1.7695 1.2435-2.3917 0.7215-0.7215 1.5234-1.0761 2.3972-1.2446l0.0214-0.0041 0.0217-0.0022c0.2076-0.0207 0.4154-0.0311 0.6232-0.0311 0.5309 0 1.0519 0.0702 1.548 0.2559 0.2937-0.62 0.7424-1.2149 1.3245-1.6405l0.0084-0.0062 0.0087-0.0058z" fill="#19194B"/>
    <path d="m24.024 13.632c0.6536 0 1.222 0.18 1.6672 0.5022 0.4831 0.3697 0.8052 0.8246 0.9757 1.3648 0.0853 0.2937 0.2937 0.5212 0.5684 0.6349 0.1231 0.0474 0.2652 0.0853 0.4073 0.0853 0.1516 0 0.3126-0.0379 0.4547-0.1042 0.4642-0.2275 0.881-0.3412 1.2883-0.3412 0.1421 0 0.2747 0.0095 0.4073 0.0379 0.6063 0.1232 1.2126 0.4265 1.6009 0.8245 0.4168 0.417 0.6726 0.9003 0.8052 1.5543 0.0663 0.7297-0.0284 1.2604-0.2747 1.7153-0.1421 0.2559-0.161 0.5402-0.0758 0.8056 0.0853 0.2653 0.2937 0.4928 0.54 0.6065 0.6441 0.2938 1.1557 0.6729 1.4777 1.0994 0.3316 0.4264 0.5021 0.9951 0.5021 1.5921 0 0.5023-0.18 1.1089-0.4831 1.668-0.4073 0.5781-0.9757 0.8435-1.3925 0.9762-0.2937 0.0853-0.521 0.2938-0.6347 0.5686s-0.1137 0.5781 0.0284 0.8624c0.3126 0.616 0.4074 1.1752 0.3032 1.7059-0.1232 0.6065-0.4263 1.2131-0.8242 1.6016-0.4168 0.417-0.8999 0.6729-1.5535 0.8056-0.1516 0.0095-0.2937 0.0095-0.4263 0.0095-0.521 0-0.9378-0.0853-1.2883-0.2938-0.1516-0.0853-0.3126-0.1232-0.4926-0.1232-0.1231 0-0.2558 0.0284-0.3694 0.0663-0.2747 0.1137-0.4926 0.3412-0.5968 0.616-0.18 0.5402-0.54 1.052-0.9568 1.3742-0.521 0.3412-1.0988 0.5213-1.6956 0.5213-0.6536 0-1.222-0.1801-1.6672-0.5023-0.4831-0.3696-0.8052-0.8245-0.9757-1.3647-0.0853-0.2938-0.2937-0.5213-0.5684-0.635-0.1231-0.0474-0.2652-0.0853-0.4073-0.0853-0.1516 0-0.3126 0.0379-0.4547 0.1042-0.4642 0.2275-0.881 0.3412-1.2883 0.3412-0.1421 0-0.2747-0.0095-0.4074-0.0379-0.6062-0.1232-1.2125-0.4265-1.6009-0.8245-0.5304-0.5307-0.7578-0.9477-0.8051-1.4879-0.0664-0.7582 0.0094-1.3173 0.2652-1.7628 0.1516-0.2653 0.161-0.5781 0.0663-0.8624-0.1137-0.2748-0.341-0.4928-0.6157-0.597-0.54-0.1801-1.042-0.5402-1.3736-0.9572-0.341-0.5213-0.521-1.0994-0.521-1.687 0-0.6539 0.18-1.2225 0.5021-1.6679 0.3694-0.4834 0.8241-0.8056 1.364-0.9762 0.2937-0.0853 0.5211-0.2938 0.6347-0.5686 0.1137-0.2749 0.1137-0.5781-0.0284-0.8624-0.3126-0.6161-0.4073-1.1752-0.3031-1.7059 0.1231-0.6066 0.4263-1.2131 0.8241-1.6017 0.4168-0.417 0.8999-0.6728 1.5536-0.8055 0.1515-0.0095 0.2936-0.0095 0.4262-0.0095 0.521 0 0.9378 0.0853 1.2883 0.2938 0.1516 0.0853 0.3126 0.1232 0.4926 0.1232 0.1232 0 0.2558-0.0284 0.3695-0.0663 0.2747-0.1138 0.4925-0.3412 0.5968-0.6161 0.1799-0.5402 0.5399-1.0519 0.9567-1.3741 0.5494-0.3602 1.1367-0.5402 1.7146-0.5402z" fill="#fff"/>
    <path d="m24.024 13.632c0.6536 0 1.222 0.18 1.6672 0.5022 0.4831 0.3697 0.8052 0.8246 0.9757 1.3648 0.0853 0.2937 0.2937 0.5212 0.5684 0.6349 0.1231 0.0474 0.2652 0.0853 0.4073 0.0853 0.1516 0 0.3126-0.0379 0.4547-0.1042 0.4642-0.2275 0.881-0.3412 1.2883-0.3412 0.1421 0 0.2747 0.0095 0.4073 0.0379 0.6063 0.1232 1.2126 0.4265 1.6009 0.8245 0.4168 0.417 0.6726 0.9003 0.8052 1.5543 0.0663 0.7297-0.0284 1.2604-0.2747 1.7153-0.1421 0.2559-0.161 0.5402-0.0758 0.8056 0.0853 0.2653 0.2937 0.4928 0.54 0.6065 0.6441 0.2938 1.1557 0.6729 1.4777 1.0994 0.3316 0.4264 0.5021 0.9951 0.5021 1.5921 0 0.5023-0.18 1.1089-0.4831 1.668-0.4073 0.5781-0.9757 0.8435-1.3925 0.9762-0.2937 0.0853-0.521 0.2938-0.6347 0.5686s-0.1137 0.5781 0.0284 0.8624c0.3126 0.616 0.4074 1.1752 0.3032 1.7059-0.1232 0.6065-0.4263 1.2131-0.8242 1.6016-0.4168 0.417-0.8999 0.6729-1.5535 0.8056-0.1516 0.0095-0.2937 0.0095-0.4263 0.0095-0.521 0-0.9378-0.0853-1.2883-0.2938-0.1516-0.0853-0.3126-0.1232-0.4926-0.1232-0.1231 0-0.2558 0.0284-0.3694 0.0663-0.2747 0.1137-0.4926 0.3412-0.5968 0.616-0.18 0.5402-0.54 1.052-0.9568 1.3742-0.521 0.3412-1.0988 0.5213-1.6956 0.5213-0.6536 0-1.222-0.1801-1.6672-0.5023-0.4831-0.3696-0.8052-0.8245-0.9757-1.3647-0.0853-0.2938-0.2937-0.5213-0.5684-0.635-0.1231-0.0474-0.2652-0.0853-0.4073-0.0853-0.1516 0-0.3126 0.0379-0.4547 0.1042-0.4642 0.2275-0.881 0.3412-1.2883 0.3412-0.1421 0-0.2747-0.0095-0.4074-0.0379-0.6062-0.1232-1.2125-0.4265-1.6009-0.8245-0.5304-0.5307-0.7578-0.9477-0.8051-1.4879-0.0664-0.7582 0.0094-1.3173 0.2652-1.7628 0.1516-0.2653 0.161-0.5781 0.0663-0.8624-0.1137-0.2748-0.341-0.4928-0.6157-0.597-0.54-0.1801-1.042-0.5402-1.3736-0.9572-0.341-0.5213-0.521-1.0994-0.521-1.687 0-0.6539 0.18-1.2225 0.5021-1.6679 0.3694-0.4834 0.8241-0.8056 1.364-0.9762 0.2937-0.0853 0.5211-0.2938 0.6347-0.5686 0.1137-0.2749 0.1137-0.5781-0.0284-0.8624-0.3126-0.6161-0.4073-1.1752-0.3031-1.7059 0.1231-0.6066 0.4263-1.2131 0.8241-1.6017 0.4168-0.417 0.8999-0.6728 1.5536-0.8055 0.1515-0.0095 0.2936-0.0095 0.4262-0.0095 0.521 0 0.9378 0.0853 1.2883 0.2938 0.1516 0.0853 0.3126 0.1232 0.4926 0.1232 0.1232 0 0.2558-0.0284 0.3695-0.0663 0.2747-0.1138 0.4925-0.3412 0.5968-0.6161 0.1799-0.5402 0.5399-1.0519 0.9567-1.3741 0.5494-0.3602 1.1367-0.5402 1.7146-0.5402z" stroke="#000"/>
    <defs>
        <linearGradient id="a" x1="24" x2="24" y1="4" y2="101.14" gradientUnits="userSpaceOnUse">
            <stop stop-color="#00A0DF" offset="0"/>
            <stop stop-color="#007CBF" offset="1"/>
        </linearGradient>
    </defs>
</svg>

<svg class="icon" viewBox="0 0 48 48" fill="none" xmlns="http://www.w3.org/2000/svg">
    <rect width="48" height="48" fill="white"/>
    <rect x="4" y="4" width="40" height="40" rx="10" fill="url(#paint0_linear)"/>
    <path d="M21.4317 12.8C22.2259 12.2705 23.1044 12 24 12C24.9702 12 25.862 12.2645 26.5901 12.8154C27.1597 13.2387 27.6238 13.7855 27.925 14.4539C28.414 14.2646 28.9117 14.1582 29.4195 14.1582C29.6634 14.1582 29.9074 14.1927 30.1232 14.2338L30.1297 14.2351C31.0046 14.4143 31.8992 14.8564 32.5214 15.4786C33.2429 16.2001 33.5975 17.002 33.766 17.8758L33.7707 17.9L33.7728 17.9246C33.8394 18.6826 33.8005 19.4196 33.533 20.1201C34.1459 20.4473 34.7522 20.8962 35.1867 21.4894C35.7321 22.2211 36 23.1095 36 24C36 24.823 35.7175 25.6891 35.2985 26.4556L35.2888 26.4734L35.2775 26.4904C34.8421 27.148 34.2313 27.6272 33.5446 27.9285C33.8157 28.642 33.9107 29.3737 33.766 30.1242L33.7649 30.1297C33.5857 31.0046 33.1436 31.8992 32.5214 32.5214C31.7999 33.2429 30.998 33.5975 30.1242 33.766L30.1028 33.7701L30.0811 33.7723C29.8735 33.793 29.6657 33.8034 29.4579 33.8034C28.927 33.8034 28.406 33.7332 27.9099 33.5475C27.6162 34.1675 27.1675 34.7624 26.5854 35.188L26.577 35.1942L26.5683 35.2C25.7741 35.7295 24.8956 36 24 36C23.0333 36 22.1458 35.7228 21.4146 35.188L21.4118 35.186C20.8414 34.7625 20.3765 34.2153 20.075 33.5461C19.586 33.7354 19.0883 33.8418 18.5805 33.8418C18.3366 33.8418 18.0926 33.8073 17.8768 33.7662L17.8703 33.7649C16.9954 33.5857 16.1008 33.1436 15.4786 32.5214C14.7873 31.83 14.3171 31.0978 14.2272 30.0754C14.1615 29.3287 14.1984 28.6023 14.4553 27.9112C13.8343 27.6175 13.2382 27.1683 12.812 26.5854L12.8058 26.577L12.8 26.5683C12.2705 25.7741 12 24.8956 12 24C12 23.0333 12.2772 22.1458 12.812 21.4146L12.814 21.4118C13.238 20.8407 13.7861 20.3754 14.4563 20.0739C14.1845 19.3596 14.0892 18.6272 14.234 17.8758L14.2351 17.8703C14.4143 16.9954 14.8564 16.1008 15.4786 15.4786C16.2001 14.7571 17.002 14.4025 17.8758 14.234L17.8972 14.2299L17.9189 14.2277C18.1265 14.207 18.3343 14.1966 18.5421 14.1966C19.073 14.1966 19.594 14.2668 20.0901 14.4525C20.3838 13.8325 20.8325 13.2376 21.4146 12.812L21.423 12.8058L21.4317 12.8Z" fill="#19194B"/>
    <path d="M24.0239 13.632C24.6775 13.632 25.2459 13.812 25.6911 14.1342C26.1742 14.5039 26.4963 14.9588 26.6668 15.499C26.7521 15.7927 26.9605 16.0202 27.2352 16.1339C27.3583 16.1813 27.5004 16.2192 27.6425 16.2192C27.7941 16.2192 27.9551 16.1813 28.0972 16.115C28.5614 15.8875 28.9782 15.7738 29.3855 15.7738C29.5276 15.7738 29.6602 15.7833 29.7928 15.8117C30.3991 15.9349 31.0054 16.2382 31.3937 16.6362C31.8105 17.0532 32.0663 17.5365 32.1989 18.1905C32.2652 18.9202 32.1705 19.4509 31.9242 19.9058C31.7821 20.1617 31.7632 20.446 31.8484 20.7114C31.9337 20.9767 32.1421 21.2042 32.3884 21.3179C33.0325 21.6117 33.5441 21.9908 33.8661 22.4173C34.1977 22.8437 34.3682 23.4124 34.3682 24.0094C34.3682 24.5117 34.1882 25.1183 33.8851 25.6774C33.4778 26.2555 32.9094 26.5209 32.4926 26.6536C32.1989 26.7389 31.9716 26.9474 31.8579 27.2222C31.7442 27.497 31.7442 27.8003 31.8863 28.0846C32.1989 28.7006 32.2937 29.2598 32.1895 29.7905C32.0663 30.397 31.7632 31.0036 31.3653 31.3921C30.9485 31.8091 30.4654 32.065 29.8118 32.1977C29.6602 32.2072 29.5181 32.2072 29.3855 32.2072C28.8645 32.2072 28.4477 32.1219 28.0972 31.9134C27.9456 31.8281 27.7846 31.7902 27.6046 31.7902C27.4815 31.7902 27.3488 31.8186 27.2352 31.8565C26.9605 31.9702 26.7426 32.1977 26.6384 32.4725C26.4584 33.0127 26.0984 33.5245 25.6816 33.8467C25.1606 34.1879 24.5828 34.368 23.986 34.368C23.3324 34.368 22.764 34.1879 22.3188 33.8657C21.8357 33.4961 21.5136 33.0412 21.3431 32.501C21.2578 32.2072 21.0494 31.9797 20.7747 31.866C20.6516 31.8186 20.5095 31.7807 20.3674 31.7807C20.2158 31.7807 20.0548 31.8186 19.9127 31.8849C19.4485 32.1124 19.0317 32.2261 18.6244 32.2261C18.4823 32.2261 18.3497 32.2166 18.217 32.1882C17.6108 32.065 17.0045 31.7617 16.6161 31.3637C16.0857 30.833 15.8583 30.416 15.811 29.8758C15.7446 29.1176 15.8204 28.5585 16.0762 28.113C16.2278 27.8477 16.2372 27.5349 16.1425 27.2506C16.0288 26.9758 15.8015 26.7578 15.5268 26.6536C14.9868 26.4735 14.4848 26.1134 14.1532 25.6964C13.8122 25.1751 13.6322 24.597 13.6322 24.0094C13.6322 23.3555 13.8122 22.7869 14.1343 22.3415C14.5037 21.8581 14.9584 21.5359 15.4983 21.3653C15.792 21.28 16.0194 21.0715 16.133 20.7967C16.2467 20.5218 16.2467 20.2186 16.1046 19.9343C15.792 19.3182 15.6973 18.7591 15.8015 18.2284C15.9246 17.6218 16.2278 17.0153 16.6256 16.6267C17.0424 16.2097 17.5255 15.9539 18.1792 15.8212C18.3307 15.8117 18.4728 15.8117 18.6054 15.8117H18.6054C19.1264 15.8117 19.5432 15.897 19.8937 16.1055C20.0453 16.1908 20.2063 16.2287 20.3863 16.2287C20.5095 16.2287 20.6421 16.2003 20.7558 16.1624C21.0305 16.0486 21.2483 15.8212 21.3526 15.5463C21.5325 15.0061 21.8925 14.4944 22.3093 14.1722C22.8587 13.812 23.446 13.632 24.0239 13.632Z" fill="white"/>
    <path d="M24.0239 13.632C24.6775 13.632 25.2459 13.812 25.6911 14.1342C26.1742 14.5039 26.4963 14.9588 26.6668 15.499C26.7521 15.7927 26.9605 16.0202 27.2352 16.1339C27.3583 16.1813 27.5004 16.2192 27.6425 16.2192C27.7941 16.2192 27.9551 16.1813 28.0972 16.115C28.5614 15.8875 28.9782 15.7738 29.3855 15.7738C29.5276 15.7738 29.6602 15.7833 29.7928 15.8117C30.3991 15.9349 31.0054 16.2382 31.3937 16.6362C31.8105 17.0532 32.0663 17.5365 32.1989 18.1905C32.2652 18.9202 32.1705 19.4509 31.9242 19.9058C31.7821 20.1617 31.7632 20.446 31.8484 20.7114C31.9337 20.9767 32.1421 21.2042 32.3884 21.3179C33.0325 21.6117 33.5441 21.9908 33.8661 22.4173C34.1977 22.8437 34.3682 23.4124 34.3682 24.0094C34.3682 24.5117 34.1882 25.1183 33.8851 25.6774C33.4778 26.2555 32.9094 26.5209 32.4926 26.6536C32.1989 26.7389 31.9716 26.9474 31.8579 27.2222C31.7442 27.497 31.7442 27.8003 31.8863 28.0846C32.1989 28.7006 32.2937 29.2598 32.1895 29.7905C32.0663 30.397 31.7632 31.0036 31.3653 31.3921C30.9485 31.8091 30.4654 32.065 29.8118 32.1977C29.6602 32.2072 29.5181 32.2072 29.3855 32.2072C28.8645 32.2072 28.4477 32.1219 28.0972 31.9134C27.9456 31.8281 27.7846 31.7902 27.6046 31.7902C27.4815 31.7902 27.3488 31.8186 27.2352 31.8565C26.9605 31.9702 26.7426 32.1977 26.6384 32.4725C26.4584 33.0127 26.0984 33.5245 25.6816 33.8467C25.1606 34.1879 24.5828 34.368 23.986 34.368C23.3324 34.368 22.764 34.1879 22.3188 33.8657C21.8357 33.4961 21.5136 33.0412 21.3431 32.501C21.2578 32.2072 21.0494 31.9797 20.7747 31.866C20.6516 31.8186 20.5095 31.7807 20.3674 31.7807C20.2158 31.7807 20.0548 31.8186 19.9127 31.8849C19.4485 32.1124 19.0317 32.2261 18.6244 32.2261C18.4823 32.2261 18.3497 32.2166 18.217 32.1882C17.6108 32.065 17.0045 31.7617 16.6161 31.3637C16.0857 30.833 15.8583 30.416 15.811 29.8758C15.7446 29.1176 15.8204 28.5585 16.0762 28.113C16.2278 27.8477 16.2372 27.5349 16.1425 27.2506C16.0288 26.9758 15.8015 26.7578 15.5268 26.6536C14.9868 26.4735 14.4848 26.1134 14.1532 25.6964C13.8122 25.1751 13.6322 24.597 13.6322 24.0094C13.6322 23.3555 13.8122 22.7869 14.1343 22.3415C14.5037 21.8581 14.9584 21.5359 15.4983 21.3653C15.792 21.28 16.0194 21.0715 16.133 20.7967C16.2467 20.5218 16.2467 20.2186 16.1046 19.9343C15.792 19.3182 15.6973 18.7591 15.8015 18.2284C15.9246 17.6218 16.2278 17.0153 16.6256 16.6267C17.0424 16.2097 17.5255 15.9539 18.1792 15.8212C18.3307 15.8117 18.4728 15.8117 18.6054 15.8117H18.6054C19.1264 15.8117 19.5432 15.897 19.8937 16.1055C20.0453 16.1908 20.2063 16.2287 20.3863 16.2287C20.5095 16.2287 20.6421 16.2003 20.7558 16.1624C21.0305 16.0486 21.2483 15.8212 21.3526 15.5463C21.5325 15.0061 21.8925 14.4944 22.3093 14.1722C22.8587 13.812 23.446 13.632 24.0239 13.632Z" stroke="black"/>
    <defs>
        <linearGradient id="paint0_linear" x1="24" y1="4" x2="24" y2="101.143" gradientUnits="userSpaceOnUse">
            <stop stop-color="#00A0DF"/>
            <stop offset="1" stop-color="#007CBF"/>
        </linearGradient>
    </defs>
</svg>
